icons/plexis/48/0ad.svg

<svg viewBox="0 0 48 48" xmlns="http://www.w3.org/2000/svg" xmlns:xlink="http://www.w3.org/1999/xlink">
  <linearGradient id="a" gradientTransform="matrix(0 -1 1 0 -.0000015 47.999998)" gradientUnits="userSpaceOnUse" x1="1" x2="47">
    <stop offset="0" stop-color="#b5945b"/>
    <stop offset="1" stop-color="#bb9e69"/>
  </linearGradient>
  <path d="m47 24c0 22.703-.297 23-23 23-22.703 0-23-.297-23-23 0-22.703.297-23 23-23 22.703 0 23 .297 23 23z" fill="url(#a)"/>
  <path d="m25 10c-8.285 0-15 6.715-15 15 0 8.285 6.715 15 15 15 8.285 0 15-6.715 15-15 0-8.285-6.715-15-15-15z" opacity=".1" transform=""/>
  <path d="m37 24c0 7.18-5.82 13-13 13-7.18 0-13-5.82-13-13 0-7.18 5.82-13 13-13 7.18 0 13 5.82 13 13m0 0" fill="#d6b987"/>
  <path d="m24 9c-8.285 0-15 6.715-15 15 0 8.285 6.715 15 15 15 8.285 0 15-6.715 15-15 0-8.285-6.715-15-15-15m-1.281 2.594c.012 0 .27-.027.281-.027v11.434h-11.406c.582-5.902 5.23-10.809 11.125-11.406m2.281-.027c5.914.582 10.824 5.523 11.406 11.441h-11.406m-13.406 2h11.406v11.438c-5.914-.582-10.824-5.523-11.406-11.438m13.406 0h11.406c-.582 5.906-5.492 10.852-11.406 11.438m0-11.438" fill="#805b20"/>
</svg>

<svg xmlns="http://www.w3.org/2000/svg" viewBox="0 0 48 48">
 <defs>
  <linearGradient id="linearGradient3764" x1="1" x2="47" gradientUnits="userSpaceOnUse" gradientTransform="matrix(0,-1,1,0,-1.5e-6,47.999998)">
   <stop style="stop-color:#b5945b;stop-opacity:1"/>
   <stop offset="1" style="stop-color:#bb9e69;stop-opacity:1"/>
  </linearGradient>
 </defs>
 <g>
  
  
  
 </g>
 <g>
  <path d="m 47,24 C 47,46.703 46.703,47 24,47 1.297,47 1,46.703 1,24 1,1.297 1.297,1 24,1 46.703,1 47,1.297 47,24 z" style="fill:url(#linearGradient3764);fill-opacity:1"/>
 </g>
 <g>
  <g>
   <g transform="translate(1,1)">
    <g style="opacity:0.1">
     <!-- color: #bb9e69 -->
     <g>
      <path d="m 25 10 c -8.285 0 -15 6.715 -15 15 c 0 8.285 6.715 15 15 15 c 8.285 0 15 -6.715 15 -15 c 0 -8.285 -6.715 -15 -15 -15 z" transform="translate(-1,-1)"/>
     </g>
    </g>
   </g>
  </g>
 </g>
 <g>
  <g>
   <!-- color: #bb9e69 -->
   <g>
    <path d="m 37 24 c 0 7.18 -5.82 13 -13 13 -7.18 0 -13 -5.82 -13 -13 0 -7.18 5.82 -13 13 -13 7.18 0 13 5.82 13 13 m 0 0" style="fill:#d6b987;fill-opacity:1;stroke:none;fill-rule:nonzero"/>
    <path d="M 24,9 C 15.715,9 9,15.715 9,24 9,32.285 15.715,39 24,39 32.285,39 39,32.285 39,24 39,15.715 32.285,9 24,9 m -1.281,2.594 c 0.012,0 0.27,-0.027 0.281,-0.027 l 0,11.434 -11.406,0 c 0.582,-5.902 5.23,-10.809 11.125,-11.406 M 25,11.568 c 5.914,0.582 10.824,5.523 11.406,11.441 l -11.406,0 m -13.406,2 11.406,0 0,11.438 C 17.086,35.865 12.176,30.924 11.594,25.009 m 13.406,0 11.406,0 C 35.824,30.915 30.914,35.861 25,36.447 m 0,-11.438" style="fill:#805b20;fill-opacity:1;stroke:none;fill-rule:nonzero"/>
   </g>
  </g>
 </g>
 <g>
  
 </g>
</svg>
